!!!!SEGMENT: pl-wnifc--6670-n--001-013_gall-jan-karol--piesni-polskie-na-chor-meski-z-i-1-witaj-jezu-ukochany.krn
!!!cenid: 19xx:181
!!!COM: Gall, Jan Karol
!!!COM-rismID: pe50042628
!!!CDT: 1856-1912
!!!CNT: Polish
!!!GTL: Pieśni polskie na chór męski (z. I)
!!!OTL: 1. Witaj Jezu ukochany
!!!OMV: 013
!!!PDT:
!!!AGN:
!!!YEC: Copyright 2022 Narodowy Instytut Fryderyka Chopina (https://polishscores.org)
!!!YEM: License CC-BY-4.0 (https://creativecommons.org/licenses/by/4.0)
!!!SMS-siglum: PL-Wnifc
!!!SMS-shelfmark: 6670/n
!!!SMS-variant:
!!!SMS-altvar:
!!!SMS-shelfwork: 001-013 G
!!!NIFC-rismSourceID: 1001152877
!!!NIFC-rismChildID: 1001152899
!!!NIFC-islandoraID: nifc:213182
!!!URL-pdf-islandora: https://repozytorium.nifc.pl/islandora/object/nifc:213182/datastream/PDF/view
!!!URL-scan: https://polish.musicsources.pl/pl/lokalizacje/galeria/druki-muzyczne/16895/8 @EN{Scan on Polish Music Sources Website} @PL{Skany w portalu Dziedzictwo Muzyki Polskiej w otwartym dostępie}
!!!IIIF:
!!!ONB-nifc:
!!!AIN: 1 bass 1 tenor
!!!key: B-
**kern	**dynam	**kern	**text	**dynam
*part2	*part2	*part1	*part1	*part1
*staff2	*	*staff1	*staff1	*
*ICvox	*	*ICvox	*	*
*Ibass	*	*Itenor	*	*
*I"Basy.	*	*I"Tenory.	*	*
*I'	*	*I'	*	*
*clefF4	*	*clefG2	*	*
*	*	*ITrd8c12	*	*
*k[b-e-]	*	*k[b-e-]	*	*
*B-:	*	*B-:	*	*
*M3/4	*	*M3/4	*	*
*>[A,A]	*>[A,A]	*>[A,A]	*>[A,A]	*>[A,A]
=1	=1	=1	=1	=1
*>A	*>A	*>A	*>A	*>A
*	*	*	*^	*
*^	*	*^	*	*	*
!!LO:TX:a:B:t=Moderato.
!	!	!LO:DY:b:rj	!LO:TX:t=P:problem:partia zapisana bez przenośnika oktawowego	!	!	!	!LO:DY:a:rj
8D/	8BB-\	mf	8B-/	8B-\	Wi-	Wi-	mf
8E-/	8BB-\	.	8c/	8B-\	-taj	-taj	.
4F/	4BB-\	.	4d/	4B-\	Je-	Je-	.
4G/	4BB-\	.	4e-/	4B-\	-zu	-zu	.
=2	=2	=2	=2	=2	=2	=2	=2
8F/	8BB-\	.	8d/	8B-\	u-	nam	.
8E-/	8BB-\	.	8c/	8B-\	-ko-	zja-	.
4E-/	4BB-\	.	4c/	8B-\L	-cha-	-wio-	.
.	.	.	.	8A\J	.	.	.
4D/	4BB-\	.	4B-/	4B-\	-ny	-ny	.
=3	=3	=3	=3	=3	=3	=3	=3
!	!	!	!	!	!	!	!LO:HP:a
8F/	8BB-\	<	8d/	8B-\	na	wi-	<
8F/	8C\	[	8e-/	8B-\	zba-	-taj	[
4F/	4D\	.	4f/	4B-\	-wie-	d wa-	.
4E-/	4E-\	.	4g/	4B-\	-nie	-kroć	.
=4	=4	=4	=4	=4	=4	=4	=4
8F/	8D\	.	8f/	8B-\	na-	na-	.
8F/	8C\	.	8e-/	8B-\	-sze	-ro-	.
4F/	4C\	.	4e-/	8B-\L	da-	-dzo-	.
.	.	.	.	8A\J	.	.	.
4F/	4BB-\	.	4d/	4B-\	-ny	-ny	.
=5	=5	=5	=5	=5	=5	=5	=5
!	!	!LO:DY:b:rj	!	!	!	!	!LO:DY:a:rj
8F/	8BB-\	f	8f/	8d\	Wi-	Raz	f
8B-/	8B-\	.	8f/	8d\	-taj!	zoj-	.
8B-/L	8B-\L	.	4f/	8d\L	ma-	-ca	.
8A-X/J	8A-\J	.	.	8c\J	.	.	.
4G/	4G\	.	8g/L	8Bn\L	-łe	przed	.
.	.	.	8f/J	8d\J	.	.	.
!!LO:LB:g=original
=6	=6	=6	=6	=6	=6	=6	=6
!	!	!	!	!	!	!	!LO:HP:a
8G/	8C\	>	8e-/	8c\	dzie-	wie-	>
8G/	8C\	.	8e-/	8c\	-cią-	-ków	.
8G/L	8C\L	]	4e-/	4c\	-tecz-	wie-	]
8G-X/J	8BB-\J	.	.	.	.	.	.
4F/	4AA\	.	8f/L	4c\	-ko,	-kiem	.
.	.	.	8e-/J	.	.	.	.
=7	=7	=7	=7	=7	=7	=7	=7
8F/	8BB-\	.	8d/	8B-\	wi-	a	.
8F/	8AA-X\	.	8d/	8c\	-taj	te-	.
4F/	4GG\	.	4d/	4Bn\	ślicz-	-raz	.
8G/L	4GG\	.	8e-/L	4B\	-ne	z ma-	.
8F/J	.	.	8d/J	.	.	.	.
=8	=8	=8	=8	=8	=8	=8	=8
8E-/	8C\	.	8c/	8c\	pa-	-tki	.
8F/	8D\	.	8Bn/	8B\	-nią-	czło-	.
!	!	!	!	!	!	!	!LO:HP:a
4G/	4E-\	<	4c/	4c\	-tecz-	-wie-	<
4G/	8D\L	[	8d/L	8B\L	-ko	-kiem	[
.	8C\J	.	8e-/J	8c\J	.	.	.
=9	=9	=9	=9	=9	=9	=9	=9
!	!	!LO:DY:b:rj	!	!	!	!	!LO:DY:a:rj
8A/L	4FF\	f	8f/L	8c\L	Wi-	Wi-	f
8G/J	.	.	8e-/J	8B-\J	.	.	.
!	!	!	!	!	!	!	!LO:HP:a
4F/	4F\	>	4d/	4A\	-taj!	-taj!	>
4E-/	4FF\	]	4c/	4A\	Je-	Je-	]
=10	=10	=10	=10	=10	=10	=10	=10
[4D/	[4BB-\	.	[4B-/	[4B-\	-zu!_	-zu!_	.
8D/]	8BB-\]	.	8B-/]	8B-\]	.	.	.
8r	8ryy	.	8r	8ryy	.	.	.
4r	4ryy	.	4r	4ryy	.	.	.
*v	*v	*	*	*	*	*	*
*	*	*v	*v	*	*	*
*	*	*	*v	*v	*
=:|!	=:|!	=:|!	=:|!	=:|!
*-	*-	*-	*-	*-
!!!system-decoration: [(s1,s2)]
!!!RDF**kern: > = above
!!!RDF**kern: < = below
!!!RDF**kern: N = linked
!!!ENC: Andrzej Gręziak
!!!EED: Katarzyna Serwa
!!!END: 2024-05-02
!!!EEV: 2025-03-07
